X: 15
T: The Pigeon On The Gate
R: reel
M: 4/4
L: 1/8
K: Edor
dc|:BE ~E2 B,E~E2|BE ~E2 dBAF|D2 (3FED ADFE|DEFA BAFA|
BE ~E2 B,E~E2|BE ~E2 dBAF|DEFA defe| dBAF EFGA:|
~B2 ed efed|(3Bcd ef gfed|BABc dedB|ABde fded|
~B2 ed efed|(3Bcd ef g2 fg|af (3gfe fdec|dBAF EFGA:|


Tune 517	Setting 26465

